html-css/module-10/img/home.svg

<svg xmlns="http://www.w3.org/2000/svg" viewBox="0 0 32 31">
    <path fill="#95e1d3" d="M32.000,16.500 C32.000,17.328 31.328,17.999 30.500,17.999 C30.105,17.999 29.748,17.844 29.480,17.594 L29.477,17.598 L16.038,4.159 L16.038,4.159 L16.000,4.122 L16.000,4.122 L2.554,17.568 L2.553,17.568 C2.282,17.835 1.910,17.999 1.500,17.999 C0.672,17.999 -0.000,17.328 -0.000,16.500 C-0.000,16.075 0.177,15.692 0.461,15.419 L14.919,0.960 C15.192,0.677 15.575,0.500 16.000,0.500 L16.000,0.500 L16.000,0.500 C16.000,0.500 16.000,0.500 16.001,0.500 C16.027,0.500 16.053,0.500 16.080,0.502 C16.084,0.502 16.088,0.503 16.092,0.503 C16.115,0.504 16.137,0.506 16.160,0.508 C16.161,0.508 16.162,0.508 16.164,0.509 C16.531,0.549 16.858,0.721 17.097,0.977 L17.098,0.976 L23.000,6.878 L23.000,5.500 C23.000,4.671 23.671,4.000 24.500,4.000 C25.328,4.000 26.000,4.671 26.000,5.500 L26.000,9.878 L31.598,15.476 L31.594,15.480 C31.844,15.748 32.000,16.105 32.000,16.500 ZM29.000,19.000 L29.000,23.500 L29.000,25.500 L29.000,29.500 C29.000,30.328 28.328,31.000 27.500,31.000 L24.500,31.000 L24.500,19.000 L18.500,19.000 L18.500,31.000 L4.500,31.000 C3.672,31.000 3.000,30.328 3.000,29.500 L3.000,25.500 L3.000,23.500 L3.000,19.000 L16.000,6.000 L29.000,19.000 ZM13.500,19.000 L7.500,19.000 L7.500,25.000 L13.500,25.000 L13.500,19.000 Z"/>
</svg>

<svg xmlns="http://www.w3.org/2000/svg" viewBox="0 0 32 31"><path fill="#95e1d3" d="M32 16.5a1.5 1.5 0 0 1-2.52 1.1L16.04 4.16 16 4.12 2.55 17.57A1.5 1.5 0 0 1 0 16.5c0-.43.18-.8.46-1.08L14.92.96A1.5 1.5 0 0 1 16 .5h.16c.37.05.7.22.94.48l5.9 5.9V5.5a1.5 1.5 0 1 1 3 0v4.38l5.6 5.6c.24.27.4.63.4 1.02zM29 19v10.5c0 .83-.67 1.5-1.5 1.5h-3V19h-6v12h-14A1.5 1.5 0 0 1 3 29.5V19L16 6l13 13zm-15.5 0h-6v6h6v-6z"/></svg>
